X:6166
T:GEORGE KING'S HORNPIPE, 2nd setting
B:John of the Greeny Cheshire Way
N: John Offord, Reproduced with permission
M:3/2
L:1/8
K:D
P:1
C2 E4 A2 c4 | C2 E4   A2 F2 ED |\
C2 E4 A2 c4 | BABc d2 A2 F2 ED ||
P:2
E2 e2 fedc dcBA | e2 E4 e2 F2 ED |\
E2 e2 fedc dcBA | d2 D4 A2 F2 ED ||
P:3
GEGE GEGE c4 | E2 C4 A2 F2 ED |\
GEGE GEGE c4 | d2 D4 A2 F2 ED |]
